X: 44
T:Mace Bell's Civil War March
S: http://www.taterjoes.com/Warehouse/Fiddle/Am_MaceBellsCivilWarMarch.pdf
R: Reel
M: C|
L: 1/8
K: G
ef g2|:"A"a3ge2[e2d2]|[e3c3] d [e2A2][f2A2]|"G"[g3A3][fA][g2A2][a2A2]|[e4A4]efg2|
"A"a3g e2 [e2d2]| (3cdc A2A2G2|A3GA2[B2G2]|1A4 ef g2:|2A4 DE G2|]
|:"A"A4 A3B|A2G2E2G2|"C"c4 ed c2|"D"d4 ef g2|
"A"a3g e2 [e2d2]|(3cdc A2A2G2|A3 G A2 [B2G2]|1A4 DE G2:|2A4 ef g2|]

